static/img/kroki/dcf87a0527a700ef2f62e8e33be96b9f.svg

<?xml version="1.0" encoding="us-ascii" standalone="no"?><svg xmlns="http://www.w3.org/2000/svg" xmlns:xlink="http://www.w3.org/1999/xlink" contentStyleType="text/css" height="352px" preserveAspectRatio="none" style="width:865px;height:352px;" version="1.1" viewBox="0 0 865 352" width="865px" zoomAndPan="magnify"><defs/><g><!--class aws_cloudwatch_alarm--><g id="elem_aws_cloudwatch_alarm"><rect codeLine="22" fill="#3D176E" height="39.7891" id="aws_cloudwatch_alarm" rx="2.5" ry="2.5" style="stroke:#000D19;stroke-width:0.5;" width="237" x="355" y="206.58"/><ellipse cx="370" cy="226.4745" fill="#ADD1B2" rx="11" ry="11" style="stroke:#181818;stroke-width:1.0;"/><path d="M372.9688,232.1152 Q372.3906,232.412 371.75,232.5527 Q371.1094,232.7089 370.4063,232.7089 Q367.9063,232.7089 366.5781,231.0683 Q365.2656,229.412 365.2656,226.287 Q365.2656,223.162 366.5781,221.5058 Q367.9063,219.8495 370.4063,219.8495 Q371.1094,219.8495 371.75,220.0058 Q372.4063,220.162 372.9688,220.4589 L372.9688,223.1777 Q372.3438,222.5995 371.75,222.3339 Q371.1563,222.0527 370.5313,222.0527 Q369.1875,222.0527 368.5,223.1308 Q367.8125,224.1933 367.8125,226.287 Q367.8125,228.3808 368.5,229.4589 Q369.1875,230.5214 370.5313,230.5214 Q371.1563,230.5214 371.75,230.2558 Q372.3438,229.9745 372.9688,229.3964 L372.9688,232.1152 Z " fill="#000000"/><text fill="#D9B8FF" font-family="Helvetica" font-size="17" lengthAdjust="spacing" textLength="195" x="389" y="232.3598">aws_cloudwatch_alarm</text></g><!--class aws_kms_key--><g id="elem_aws_kms_key"><rect codeLine="24" fill="#3D176E" height="39.7891" id="aws_kms_key" rx="2.5" ry="2.5" style="stroke:#000D19;stroke-width:0.5;" width="158" x="566.5" y="306.37"/><ellipse cx="581.5" cy="326.2645" fill="#ADD1B2" rx="11" ry="11" style="stroke:#181818;stroke-width:1.0;"/><path d="M584.4688,331.9052 Q583.8906,332.202 583.25,332.3427 Q582.6094,332.4989 581.9063,332.4989 Q579.4063,332.4989 578.0781,330.8583 Q576.7656,329.202 576.7656,326.077 Q576.7656,322.952 578.0781,321.2958 Q579.4063,319.6395 581.9063,319.6395 Q582.6094,319.6395 583.25,319.7958 Q583.9063,319.952 584.4688,320.2489 L584.4688,322.9677 Q583.8438,322.3895 583.25,322.1239 Q582.6563,321.8427 582.0313,321.8427 Q580.6875,321.8427 580,322.9208 Q579.3125,323.9833 579.3125,326.077 Q579.3125,328.1708 580,329.2489 Q580.6875,330.3114 582.0313,330.3114 Q582.6563,330.3114 583.25,330.0458 Q583.8438,329.7645 584.4688,329.1864 L584.4688,331.9052 Z " fill="#000000"/><text fill="#D9B8FF" font-family="Helvetica" font-size="17" lengthAdjust="spacing" textLength="116" x="600.5" y="332.1498">aws_kms_key</text></g><!--class aws_s3_bucket--><g id="elem_aws_s3_bucket"><rect codeLine="26" fill="#3D176E" height="39.7891" id="aws_s3_bucket" rx="2.5" ry="2.5" style="stroke:#000D19;stroke-width:0.5;" width="168" x="151.5" y="206.58"/><ellipse cx="166.5" cy="226.4745" fill="#ADD1B2" rx="11" ry="11" style="stroke:#181818;stroke-width:1.0;"/><path d="M169.4688,232.1152 Q168.8906,232.412 168.25,232.5527 Q167.6094,232.7089 166.9063,232.7089 Q164.4063,232.7089 163.0781,231.0683 Q161.7656,229.412 161.7656,226.287 Q161.7656,223.162 163.0781,221.5058 Q164.4063,219.8495 166.9063,219.8495 Q167.6094,219.8495 168.25,220.0058 Q168.9063,220.162 169.4688,220.4589 L169.4688,223.1777 Q168.8438,222.5995 168.25,222.3339 Q167.6563,222.0527 167.0313,222.0527 Q165.6875,222.0527 165,223.1308 Q164.3125,224.1933 164.3125,226.287 Q164.3125,228.3808 165,229.4589 Q165.6875,230.5214 167.0313,230.5214 Q167.6563,230.5214 168.25,230.2558 Q168.8438,229.9745 169.4688,229.3964 L169.4688,232.1152 Z " fill="#000000"/><text fill="#D9B8FF" font-family="Helvetica" font-size="17" lengthAdjust="spacing" textLength="126" x="185.5" y="232.3598">aws_s3_bucket</text></g><!--class aws_sagemaker_endpoint--><g id="elem_aws_sagemaker_endpoint"><rect codeLine="28" fill="#3D176E" height="39.7891" id="aws_sagemaker_endpoint" rx="2.5" ry="2.5" style="stroke:#000D19;stroke-width:0.5;" width="259" x="344" y="106.79"/><ellipse cx="359" cy="126.6845" fill="#ADD1B2" rx="11" ry="11" style="stroke:#181818;stroke-width:1.0;"/><path d="M361.9688,132.3252 Q361.3906,132.622 360.75,132.7627 Q360.1094,132.9189 359.4063,132.9189 Q356.9063,132.9189 355.5781,131.2783 Q354.2656,129.622 354.2656,126.497 Q354.2656,123.372 355.5781,121.7158 Q356.9063,120.0595 359.4063,120.0595 Q360.1094,120.0595 360.75,120.2158 Q361.4063,120.372 361.9688,120.6689 L361.9688,123.3877 Q361.3438,122.8095 360.75,122.5439 Q360.1563,122.2627 359.5313,122.2627 Q358.1875,122.2627 357.5,123.3408 Q356.8125,124.4033 356.8125,126.497 Q356.8125,128.5908 357.5,129.6689 Q358.1875,130.7314 359.5313,130.7314 Q360.1563,130.7314 360.75,130.4658 Q361.3438,130.1845 361.9688,129.6064 L361.9688,132.3252 Z " fill="#000000"/><text fill="#D9B8FF" font-family="Helvetica" font-size="17" lengthAdjust="spacing" textLength="217" x="378" y="132.5698">aws_sagemaker_endpoint</text></g><!--class aws_sagemaker_inference_recommendations_job--><g id="elem_aws_sagemaker_inference_recommendations_job"><rect codeLine="30" fill="#3D176E" height="39.7891" id="aws_sagemaker_inference_recommendations_job" rx="2.5" ry="2.5" style="stroke:#000D19;stroke-width:0.5;" width="457" x="7" y="7"/><ellipse cx="22" cy="26.8945" fill="#ADD1B2" rx="11" ry="11" style="stroke:#181818;stroke-width:1.0;"/><path d="M24.9688,32.5352 Q24.3906,32.832 23.75,32.9727 Q23.1094,33.1289 22.4063,33.1289 Q19.9063,33.1289 18.5781,31.4883 Q17.2656,29.832 17.2656,26.707 Q17.2656,23.582 18.5781,21.9258 Q19.9063,20.2695 22.4063,20.2695 Q23.1094,20.2695 23.75,20.4258 Q24.4063,20.582 24.9688,20.8789 L24.9688,23.5977 Q24.3438,23.0195 23.75,22.7539 Q23.1563,22.4727 22.5313,22.4727 Q21.1875,22.4727 20.5,23.5508 Q19.8125,24.6133 19.8125,26.707 Q19.8125,28.8008 20.5,29.8789 Q21.1875,30.9414 22.5313,30.9414 Q23.1563,30.9414 23.75,30.6758 Q24.3438,30.3945 24.9688,29.8164 L24.9688,32.5352 Z " fill="#000000"/><text fill="#D9B8FF" font-family="Helvetica" font-size="17" lengthAdjust="spacing" textLength="415" x="41" y="32.7798">aws_sagemaker_inference_recommendations_job</text></g><!--class aws_sns_topic--><g id="elem_aws_sns_topic"><rect codeLine="32" fill="#3D176E" height="39.7891" id="aws_sns_topic" rx="2.5" ry="2.5" style="stroke:#000D19;stroke-width:0.5;" width="160" x="698.5" y="206.58"/><ellipse cx="713.5" cy="226.4745" fill="#ADD1B2" rx="11" ry="11" style="stroke:#181818;stroke-width:1.0;"/><path d="M716.4688,232.1152 Q715.8906,232.412 715.25,232.5527 Q714.6094,232.7089 713.9063,232.7089 Q711.4063,232.7089 710.0781,231.0683 Q708.7656,229.412 708.7656,226.287 Q708.7656,223.162 710.0781,221.5058 Q711.4063,219.8495 713.9063,219.8495 Q714.6094,219.8495 715.25,220.0058 Q715.9063,220.162 716.4688,220.4589 L716.4688,223.1777 Q715.8438,222.5995 715.25,222.3339 Q714.6563,222.0527 714.0313,222.0527 Q712.6875,222.0527 712,223.1308 Q711.3125,224.1933 711.3125,226.287 Q711.3125,228.3808 712,229.4589 Q712.6875,230.5214 714.0313,230.5214 Q714.6563,230.5214 715.25,230.2558 Q715.8438,229.9745 716.4688,229.3964 L716.4688,232.1152 Z " fill="#000000"/><text fill="#D9B8FF" font-family="Helvetica" font-size="17" lengthAdjust="spacing" textLength="118" x="732.5" y="232.3598">aws_sns_topic</text></g><!--link aws_sagemaker_endpoint to aws_cloudwatch_alarm--><g id="link_aws_sagemaker_endpoint_aws_cloudwatch_alarm"><path codeLine="34" d="M473.5,147.01 C473.5,162.28 473.5,183.71 473.5,200.32 " fill="none" id="aws_sagemaker_endpoint-to-aws_cloudwatch_alarm" style="stroke:#1A83AF;stroke-width:2.0;"/><polygon fill="#1A83AF" points="473.5,205.2,477.5,196.2,473.5,200.2,469.5,196.2,473.5,205.2" style="stroke:#1A83AF;stroke-width:2.0;"/></g><!--link aws_sagemaker_endpoint to aws_kms_key--><g id="link_aws_sagemaker_endpoint_aws_kms_key"><path codeLine="35" d="M526.24,147.05 C554.6,159.93 588.06,179.51 609.5,206.58 C631.16,233.93 639.82,274.2 643.26,300.08 " fill="none" id="aws_sagemaker_endpoint-to-aws_kms_key" style="stroke:#1A83AF;stroke-width:2.0;"/><polygon fill="#1A83AF" points="643.99,305.01,646.8528,295.5864,643.3751,300.048,638.9136,296.5702,643.99,305.01" style="stroke:#1A83AF;stroke-width:2.0;"/></g><!--link aws_sagemaker_endpoint to aws_s3_bucket--><g id="link_aws_sagemaker_endpoint_aws_s3_bucket"><path codeLine="36" d="M426.48,147.01 C386.55,163.41 329.29,186.94 287.9,203.95 " fill="none" id="aws_sagemaker_endpoint-to-aws_s3_bucket" style="stroke:#1A83AF;stroke-width:2.0;"/><polygon fill="#1A83AF" points="283.42,206.2,293.2651,206.472,288.0434,204.2963,290.2191,199.0745,283.42,206.2" style="stroke:#1A83AF;stroke-width:2.0;"/></g><!--link aws_sagemaker_endpoint to aws_sns_topic--><g id="link_aws_sagemaker_endpoint_aws_sns_topic"><path codeLine="37" d="M533.76,147.01 C585.37,163.55 659.56,187.34 712.71,204.38 " fill="none" id="aws_sagemaker_endpoint-to-aws_sns_topic" style="stroke:#1A83AF;stroke-width:2.0;"/><polygon fill="#1A83AF" points="717.11,206.11,709.7651,199.5485,712.3497,204.5804,707.3178,207.165,717.11,206.11" style="stroke:#1A83AF;stroke-width:2.0;"/></g><!--link aws_sagemaker_inference_recommendations_job to aws_kms_key--><g id="link_aws_sagemaker_inference_recommendations_job_aws_kms_key"><path codeLine="38" d="M213.67,47.1 C170.06,87.71 80.78,183.72 134.5,246.37 C188.33,309.15 429.4,322.43 560.29,324.94 " fill="none" id="aws_sagemaker_inference_recommendations_job-to-aws_kms_key" style="stroke:#1A83AF;stroke-width:2.0;"/><polygon fill="#1A83AF" points="565.05,325.05,556.1199,320.8963,560.0507,324.9643,555.9828,328.8951,565.05,325.05" style="stroke:#1A83AF;stroke-width:2.0;"/></g><!--link aws_sagemaker_inference_recommendations_job to aws_s3_bucket--><g id="link_aws_sagemaker_inference_recommendations_job_aws_s3_bucket"><path codeLine="39" d="M235.5,47.2 C235.5,83.2 235.5,160.55 235.5,200.48 " fill="none" id="aws_sagemaker_inference_recommendations_job-to-aws_s3_bucket" style="stroke:#1A83AF;stroke-width:2.0;"/><polygon fill="#1A83AF" points="235.5,205.09,239.5,196.09,235.5,200.09,231.5,196.09,235.5,205.09" style="stroke:#1A83AF;stroke-width:2.0;"/></g><!--link aws_sagemaker_inference_recommendations_job to aws_sagemaker_endpoint--><g id="link_aws_sagemaker_inference_recommendations_job_aws_sagemaker_endpoint"><path codeLine="40" d="M282.52,47.22 C322.45,63.63 379.71,87.15 421.1,104.16 " fill="none" id="aws_sagemaker_inference_recommendations_job-to-aws_sagemaker_endpoint" style="stroke:#1A83AF;stroke-width:2.0;"/><polygon fill="#1A83AF" points="425.58,106.41,418.7732,99.2919,420.9545,104.5113,415.7352,106.6927,425.58,106.41" style="stroke:#1A83AF;stroke-width:2.0;"/></g><!--link aws_sns_topic to aws_kms_key--><g id="link_aws_sns_topic_aws_kms_key"><path codeLine="41" d="M752.22,246.8 C730.46,262.8 699.48,285.58 676.5,302.47 " fill="none" id="aws_sns_topic-to-aws_kms_key" style="stroke:#1A83AF;stroke-width:2.0;"/><polygon fill="#1A83AF" points="672.72,305.99,682.3373,303.8668,676.7438,303.0221,677.5886,297.4286,672.72,305.99" style="stroke:#1A83AF;stroke-width:2.0;"/></g><!--SRC=[bP7DQiCm48JlVWf1pe6ufaroARY1q5v2QNehnQobLQpQaemarwIbxrxd5yUE4-UWo-otkpEhH30aA7Et9X9bZCPwDXKg1mEIXCReSgOpRSY0S-31k5cSQ-Mk0WkGI9un-qOdA3I9zqJGLA6rvAvMUWAQhemk5DkDTmQKhKgeN8sQPM1jw9mHSU6mPePDumddJR8vT10mV_o0BKmRXcQFZ4OZva-RoDLL5tCVYQNuGUBNZxRG3bisMoksr4MN6w9ciXNqKE_q-0gC2RKYzpNjRUV9A3Gd-Z81fiiDpI6pzJNMeK7jrZdEMgbmEc5yV1P-wOBfvd84IXlHJ1Ui14UJ238malnwVxLoAgk7wuPgWoWkQ8gkgSCA9QHe8bGirq9r0qBnogMY61caMigg0PpGoaPVEcvsLQhJkQ1RlMFHy6FWXvCWd7yE7yycwzsupzoRFrwZVySXa7VBKNeQlN58b_jRnxHYUwTVr-N-7m00]--></g></svg>

<svg xmlns="http://www.w3.org/2000/svg" width="865" height="352" preserveAspectRatio="none" style="width:865px;height:352px"><rect width="237" height="39.789" x="355" y="206.58" fill="#3D176E" rx="2.5" ry="2.5" style="stroke:#000d19;stroke-width:.5"/><circle cx="370" cy="226.475" r="11" fill="#ADD1B2" style="stroke:#181818;stroke-width:1"/><path d="M372.969 232.115q-.578.297-1.219.438-.64.156-1.344.156-2.5 0-3.828-1.64-1.312-1.657-1.312-4.782t1.312-4.781q1.328-1.656 3.828-1.656.703 0 1.344.156.656.156 1.219.453v2.719q-.625-.578-1.219-.844-.594-.281-1.219-.281-1.344 0-2.031 1.078-.688 1.062-.688 3.156 0 2.094.688 3.172.688 1.062 2.031 1.062.625 0 1.219-.265.594-.281 1.219-.86v2.72Z"/><text x="389" y="232.36" fill="#D9B8FF" font-family="Helvetica" font-size="17" textLength="195">aws_cloudwatch_alarm</text><rect width="158" height="39.789" x="566.5" y="306.37" fill="#3D176E" rx="2.5" ry="2.5" style="stroke:#000d19;stroke-width:.5"/><circle cx="581.5" cy="326.264" r="11" fill="#ADD1B2" style="stroke:#181818;stroke-width:1"/><path d="M584.469 331.905q-.578.297-1.219.438-.64.156-1.344.156-2.5 0-3.828-1.64-1.312-1.657-1.312-4.782t1.312-4.781q1.328-1.656 3.828-1.656.703 0 1.344.156.656.156 1.219.453v2.719q-.625-.579-1.219-.844-.594-.281-1.219-.281-1.343 0-2.031 1.078-.688 1.062-.688 3.156 0 2.094.688 3.172.688 1.062 2.031 1.062.625 0 1.219-.265.594-.281 1.219-.86v2.72Z"/><text x="600.5" y="332.15" fill="#D9B8FF" font-family="Helvetica" font-size="17" textLength="116">aws_kms_key</text><rect width="168" height="39.789" x="151.5" y="206.58" fill="#3D176E" rx="2.5" ry="2.5" style="stroke:#000d19;stroke-width:.5"/><circle cx="166.5" cy="226.475" r="11" fill="#ADD1B2" style="stroke:#181818;stroke-width:1"/><path d="M169.469 232.115q-.578.297-1.219.438-.64.156-1.344.156-2.5 0-3.828-1.64-1.312-1.657-1.312-4.782t1.312-4.781q1.328-1.656 3.828-1.656.703 0 1.344.156.656.156 1.219.453v2.719q-.625-.578-1.219-.844-.594-.281-1.219-.281-1.344 0-2.031 1.078-.688 1.062-.688 3.156 0 2.094.688 3.172.688 1.062 2.031 1.062.625 0 1.219-.265.594-.281 1.219-.86v2.72Z"/><text x="185.5" y="232.36" fill="#D9B8FF" font-family="Helvetica" font-size="17" textLength="126">aws_s3_bucket</text><rect width="259" height="39.789" x="344" y="106.79" fill="#3D176E" rx="2.5" ry="2.5" style="stroke:#000d19;stroke-width:.5"/><circle cx="359" cy="126.684" r="11" fill="#ADD1B2" style="stroke:#181818;stroke-width:1"/><path d="M361.969 132.325q-.578.297-1.219.438-.64.156-1.344.156-2.5 0-3.828-1.64-1.312-1.657-1.312-4.782t1.312-4.781q1.328-1.656 3.828-1.656.703 0 1.344.156.656.156 1.219.453v2.719q-.625-.579-1.219-.844-.594-.281-1.219-.281-1.344 0-2.031 1.078-.688 1.062-.688 3.156 0 2.094.688 3.172.688 1.062 2.031 1.062.625 0 1.219-.265.594-.281 1.219-.86v2.72Z"/><text x="378" y="132.57" fill="#D9B8FF" font-family="Helvetica" font-size="17" textLength="217">aws_sagemaker_endpoint</text><rect width="457" height="39.789" x="7" y="7" fill="#3D176E" rx="2.5" ry="2.5" style="stroke:#000d19;stroke-width:.5"/><circle cx="22" cy="26.895" r="11" fill="#ADD1B2" style="stroke:#181818;stroke-width:1"/><path d="M24.969 32.535q-.578.297-1.219.438-.64.156-1.344.156-2.5 0-3.828-1.64-1.312-1.657-1.312-4.782t1.312-4.781q1.328-1.656 3.828-1.656.703 0 1.344.156.656.156 1.219.453v2.719q-.625-.578-1.219-.844-.594-.281-1.219-.281-1.343 0-2.031 1.078-.688 1.062-.688 3.156 0 2.094.688 3.172.688 1.062 2.031 1.062.625 0 1.219-.265.594-.281 1.219-.86v2.72Z"/><text x="41" y="32.78" fill="#D9B8FF" font-family="Helvetica" font-size="17" textLength="415">aws_sagemaker_inference_recommendations_job</text><rect width="160" height="39.789" x="698.5" y="206.58" fill="#3D176E" rx="2.5" ry="2.5" style="stroke:#000d19;stroke-width:.5"/><circle cx="713.5" cy="226.475" r="11" fill="#ADD1B2" style="stroke:#181818;stroke-width:1"/><path d="M716.469 232.115q-.578.297-1.219.438-.64.156-1.344.156-2.5 0-3.828-1.64-1.312-1.657-1.312-4.782t1.312-4.781q1.328-1.656 3.828-1.656.703 0 1.344.156.656.156 1.219.453v2.719q-.625-.578-1.219-.844-.594-.281-1.219-.281-1.343 0-2.031 1.078-.688 1.062-.688 3.156 0 2.094.688 3.172.688 1.062 2.031 1.062.625 0 1.219-.265.594-.281 1.219-.86v2.72Z"/><text x="732.5" y="232.36" fill="#D9B8FF" font-family="Helvetica" font-size="17" textLength="118">aws_sns_topic</text><path fill="none" d="M473.5 147.01v53.31" style="stroke:#1a83af;stroke-width:2"/><path fill="#1A83AF" d="m473.5 205.2 4-9-4 4-4-4 4 9z" style="stroke:#1a83af;stroke-width:2"/><path fill="none" d="M526.24 147.05c28.36 12.88 61.82 32.46 83.26 59.53 21.66 27.35 30.32 67.62 33.76 93.5" style="stroke:#1a83af;stroke-width:2"/><path fill="#1A83AF" d="m643.99 305.01 2.863-9.424-3.478 4.462-4.461-3.478 5.076 8.44z" style="stroke:#1a83af;stroke-width:2"/><path fill="none" d="M426.48 147.01c-39.93 16.4-97.19 39.93-138.58 56.94" style="stroke:#1a83af;stroke-width:2"/><path fill="#1A83AF" d="m283.42 206.2 9.845.272-5.222-2.176 2.176-5.221-6.799 7.125z" style="stroke:#1a83af;stroke-width:2"/><path fill="none" d="M533.76 147.01c51.61 16.54 125.8 40.33 178.95 57.37" style="stroke:#1a83af;stroke-width:2"/><path fill="#1A83AF" d="m717.11 206.11-7.345-6.562 2.585 5.032-5.032 2.585 9.792-1.055z" style="stroke:#1a83af;stroke-width:2"/><path fill="none" d="M213.67 47.1C170.06 87.71 80.78 183.72 134.5 246.37c53.83 62.78 294.9 76.06 425.79 78.57" style="stroke:#1a83af;stroke-width:2"/><path fill="#1A83AF" d="m565.05 325.05-8.93-4.154 3.93 4.068-4.067 3.931 9.067-3.845z" style="stroke:#1a83af;stroke-width:2"/><path fill="none" d="M235.5 47.2v153.28" style="stroke:#1a83af;stroke-width:2"/><path fill="#1A83AF" d="m235.5 205.09 4-9-4 4-4-4 4 9z" style="stroke:#1a83af;stroke-width:2"/><path fill="none" d="M282.52 47.22c39.93 16.41 97.19 39.93 138.58 56.94" style="stroke:#1a83af;stroke-width:2"/><path fill="#1A83AF" d="m425.58 106.41-6.807-7.118 2.181 5.22-5.219 2.18 9.845-.282z" style="stroke:#1a83af;stroke-width:2"/><path fill="none" d="M752.22 246.8c-21.76 16-52.74 38.78-75.72 55.67" style="stroke:#1a83af;stroke-width:2"/><path fill="#1A83AF" d="m672.72 305.99 9.617-2.123-5.593-.845.845-5.593-4.869 8.561z" style="stroke:#1a83af;stroke-width:2"/></svg>
